src/lib/packages/icons/src/assets/filled/bookmarks-user.svg

<svg width="24" height="24" viewBox="0 0 24 24" fill="none" xmlns="http://www.w3.org/2000/svg">
<path d="M19.9971 4.56995V18L19.99 17.986V18L17.6411 16.656C17.5471 16.603 17.49 16.503 17.49 16.396C17.49 16.396 17.49 8.50495 17.49 8.47095C17.449 5.98395 15.9439 4.501 13.4299 4.5H8.21704C8.04304 4.5 7.9911 4.34805 8.0061 4.17505C8.1311 2.73105 8.98506 2 10.5601 2H17.4199H17.427C19.137 2 19.9971 2.85995 19.9971 4.56995ZM16 8.57104V22L10 18.572L4 22V8.57104C4 6.85705 4.85704 6 6.57104 6H13.428C15.143 6 16 6.85705 16 8.57104ZM8.1001 10.4C8.1001 11.448 8.953 12.3 10 12.3C11.047 12.3 11.8999 11.448 11.8999 10.4C11.8999 9.35202 11.047 8.5 10 8.5C8.953 8.5 8.1001 9.35202 8.1001 10.4ZM13.02 15.746C13.02 14.58 12.168 13.4 10.54 13.4H9.46191C7.83291 13.4 6.98193 14.58 6.98193 15.746V16C6.98193 16.276 7.20593 16.5 7.48193 16.5H12.521C12.797 16.5 13.021 16.276 13.021 16V15.746H13.02Z" fill="currentColor"/>
</svg>

<svg xmlns="http://www.w3.org/2000/svg" width="24" height="24" fill="none"><path fill="currentColor" d="M19.997 4.57V18l-.007-.014V18l-2.349-1.344a.298.298 0 0 1-.151-.26V8.471c-.041-2.487-1.546-3.97-4.06-3.971H8.217c-.174 0-.226-.152-.21-.325C8.13 2.731 8.984 2 10.56 2h6.867c1.71 0 2.57.86 2.57 2.57ZM16 8.57V22l-6-3.428L4 22V8.571C4 6.857 4.857 6 6.571 6h6.857C15.143 6 16 6.857 16 8.571ZM8.1 10.4c0 1.048.853 1.9 1.9 1.9s1.9-.852 1.9-1.9-.853-1.9-1.9-1.9-1.9.852-1.9 1.9Zm4.92 5.346c0-1.166-.852-2.346-2.48-2.346H9.462c-1.63 0-2.48 1.18-2.48 2.346V16a.5.5 0 0 0 .5.5h5.039a.5.5 0 0 0 .5-.5v-.254h-.001Z"/></svg>
